Flat-Remix-Blue/mimetypes/scalable/application-pdf.svg

<svg width="36pt" height="36pt" version="1.1" viewBox="0 0 36 36" xmlns="http://www.w3.org/2000/svg"><defs><filter id="a" x="-.192" y="-.192" width="1.384" height="1.384" color-interpolation-filters="sRGB"><feGaussianBlur stdDeviation="0.67843748"/></filter></defs><path d="m7.3477 3.1523c-0.67188 0-1.3047 0.63281-1.3047 1.3047v27.391c0 0.63281 0.67188 1.3047 1.3047 1.3047h20.871c0.63281 0 1.3047-0.67188 1.3047-1.3047v-20.215l-8.4805-8.4805z" fill="#d31818"/><path d="m20.668 3.5272 8.4805 8.4805h-7.1758c-0.63281 0-1.3047-0.67187-1.3047-1.3047z" filter="url(#a)" opacity=".2"/><path d="m21.043 3.1523 8.4805 8.4805h-7.1758c-0.63281 0-1.3047-0.67187-1.3047-1.3047z" fill="#e05d5d"/><path d="m15.098 11.074c-0.76562-0.015625-1.4297 0.75-1.2656 1.5117 0.10938 1.1641 0.85938 2.1133 1.4453 3.0742 0.066406 0.35938-0.12109 0.70703-0.13281 1.0625-0.38281 2.0938-0.96875 4.1719-1.8633 6.0898-1.1133 0.50781-2.3711 1.0156-3.0195 2.1172-0.41406 0.76562 0.16797 1.7969 1.0195 1.8789 0.78906 0.10547 1.3789-0.57031 1.8086-1.1367 0.45312-0.61328 0.75-1.3398 1.125-1.9961 2.2734-0.91406 4.6641-1.5547 7.1055-1.7969 0.98438 0.70703 2.0312 1.5391 3.2969 1.5898 0.73437-0.011719 1.332-0.72656 1.25-1.4531-0.046876-0.66016-0.63281-1.1211-1.2422-1.2461-0.98047-0.29297-2.0273-0.13281-3.0273-0.125-1.918-1.5352-3.6875-3.2969-5.082-5.3164 0.10156-1.2266 0.30859-2.582-0.32812-3.6992-0.24219-0.35156-0.65625-0.59375-1.0898-0.55469m0.039063 1.1133c0.21484 0.042969 0.23047 0.36328 0.28906 0.53516 0.058594 0.35156 0.050781 0.70703 0.046875 1.0625-0.25781-0.48047-0.58984-0.98438-0.53125-1.5547 0.066406 0 0.12891-0.035157 0.19531-0.042969m1.1914 4.7852c1.1406 1.4219 2.4141 2.7305 3.7969 3.918-1.8281 0.27734-3.6406 0.74609-5.3828 1.375 0.66797-1.7422 1.1758-3.543 1.5117-5.3828 0.023438 0.03125 0.046875 0.058594 0.074219 0.089844m7.1328 4.7773c0.44141 0.042969 0.95312 0.019531 1.3086 0.32422 0.03125 0.27734-0.30469 0.31641-0.48438 0.21484-0.375-0.125-0.74609-0.28125-1.0625-0.51953 0.078125-0.007812 0.15625-0.015625 0.23828-0.019531m-11.082 2.9023c-0.21094 0.39062-0.51562 0.76172-0.83594 1.0391-0.10547 0.17188-0.39844-0.14453-0.26562-0.28125 0.27734-0.43359 0.76172-0.66406 1.1914-0.92578-0.027344 0.058594-0.058594 0.11328-0.089844 0.16797" fill="#fff"/></svg>

<svg xmlns="http://www.w3.org/2000/svg" xmlns:xlink="http://www.w3.org/1999/xlink" width="36pt" height="36pt" version="1.1" viewBox="0 0 36 36"> <defs> <clipPath id="clip1"> <path d="M 20 2 L 31 2 L 31 13 L 20 13 Z M 20 2"/> </clipPath> <clipPath id="clip2"> <path d="M 20.515625 2.625 L 30.328125 12.4375 L 22.023438 12.4375 C 21.292969 12.4375 20.515625 11.660156 20.515625 10.929688 Z M 20.515625 2.625"/> </clipPath> <image id="image6" width="36" height="36" xlink:href="data:image/png;base64,iVBORw0KGgoAAAANSUhEUgAAACQAAAAkCAYAAADhAJiYAAAABmJLR0QA/wD/AP+gvaeTAAAAmklEQVRYhe3T0QqCQBBG4aOtYEoUvf9Lildltl00C4tkbBeTIP+BAUEYP1YW1Pcqh53B9kbgaVPcwQF0tAmGSrMZ6AKcDQXw+AUVHEAtcAUaewYYgYmC3+cBCkAPnDJQMcoDVNnebgEqQnmAclTz4d0I3P4JStc9AjXvk4qLWQV53LLeEOl05gw4A3dgcPiuUkoppZRSSqk99gLWvSJpuDnlsAAAAABJRU5ErkJggg=="/> </defs> <g> <path style="fill:rgb(83.137%,9.803%,9.803%)" d="M 7.347656 3.152344 C 6.675781 3.152344 6.042969 3.785156 6.042969 4.457031 L 6.042969 31.847656 C 6.042969 32.480469 6.714844 33.152344 7.347656 33.152344 L 28.21875 33.152344 C 28.851562 33.152344 29.523438 32.480469 29.523438 31.847656 L 29.523438 11.632812 L 21.042969 3.152344 Z M 7.347656 3.152344"/> <g clip-path="url(#clip1)"> <g clip-path="url(#clip2)"> <use xlink:href="#image6"/> </g> </g> <path style="fill:rgb(88.235%,36.862%,36.862%)" d="M 21.042969 3.152344 L 29.523438 11.632812 L 22.347656 11.632812 C 21.714844 11.632812 21.042969 10.960938 21.042969 10.328125 Z M 21.042969 3.152344"/> <path style="fill:rgb(100.000%,100.000%,100.000%)" d="M 15.097656 11.074219 C 14.332031 11.058594 13.667969 11.824219 13.832031 12.585938 C 13.941406 13.75 14.691406 14.699219 15.277344 15.660156 C 15.34375 16.019531 15.15625 16.367188 15.144531 16.722656 C 14.761719 18.816406 14.175781 20.894531 13.28125 22.8125 C 12.167969 23.320312 10.910156 23.828125 10.261719 24.929688 C 9.847656 25.695312 10.429688 26.726562 11.28125 26.808594 C 12.070312 26.914062 12.660156 26.238281 13.089844 25.671875 C 13.542969 25.058594 13.839844 24.332031 14.214844 23.675781 C 16.488281 22.761719 18.878906 22.121094 21.320312 21.878906 C 22.304688 22.585938 23.351562 23.417969 24.617188 23.46875 C 25.351562 23.457031 25.949219 22.742188 25.867188 22.015625 C 25.820312 21.355469 25.234375 20.894531 24.625 20.769531 C 23.644531 20.476562 22.597656 20.636719 21.597656 20.644531 C 19.679688 19.109375 17.910156 17.347656 16.515625 15.328125 C 16.617188 14.101562 16.824219 12.746094 16.1875 11.628906 C 15.945312 11.277344 15.53125 11.035156 15.097656 11.074219 M 15.136719 12.1875 C 15.351562 12.230469 15.367188 12.550781 15.425781 12.722656 C 15.484375 13.074219 15.476562 13.429688 15.472656 13.785156 C 15.214844 13.304688 14.882812 12.800781 14.941406 12.230469 C 15.007812 12.230469 15.070312 12.195312 15.136719 12.1875 M 16.328125 16.972656 C 17.46875 18.394531 18.742188 19.703125 20.125 20.890625 C 18.296875 21.167969 16.484375 21.636719 14.742188 22.265625 C 15.410156 20.523438 15.917969 18.722656 16.253906 16.882812 C 16.277344 16.914062 16.300781 16.941406 16.328125 16.972656 M 23.460938 21.75 C 23.902344 21.792969 24.414062 21.769531 24.769531 22.074219 C 24.800781 22.351562 24.464844 22.390625 24.285156 22.289062 C 23.910156 22.164062 23.539062 22.007812 23.222656 21.769531 C 23.300781 21.761719 23.378906 21.753906 23.460938 21.75 M 12.378906 24.652344 C 12.167969 25.042969 11.863281 25.414062 11.542969 25.691406 C 11.4375 25.863281 11.144531 25.546875 11.277344 25.410156 C 11.554688 24.976562 12.039062 24.746094 12.46875 24.484375 C 12.441406 24.542969 12.410156 24.597656 12.378906 24.652344"/> </g> </svg>
